icons/folder_type_locale_opened.svg

<svg xmlns="http://www.w3.org/2000/svg" viewBox="0 0 32 32"><path d="M27.4 5.5h-9.2l-2.1 4.2H4.3v16.8h25.2v-21Zm0 18.7H6.6V11.8h20.8Zm0-14.5h-8.2l1-2.1h7.1v2.1Z" style="fill:#7b87db"/><path d="M25.7 13.7H.5l3.8 12.8h25.2l-3.8-12.8z" style="fill:#7b87db"/><path d="M29.6 31a1.39 1.39 0 0 0 1.4-1.376V15.591a1.39 1.39 0 0 0-1.4-1.376H15.968L21.439 31Z" style="fill:#d9d9d9"/><path d="M25.03 27.035 21.464 31l-1.297-3.965h4.863z" style="fill:#4352b8"/><path d="M29.673 20.03v-.82h-3.955v-1.326h-1.283v1.325H21.91v.82h5.023a7.272 7.272 0 0 1-1.441 2.535c-1.027-1.214-1.031-1.609-1.031-1.609H23.4s.044.591 1.483 2.278a10.13 10.13 0 0 1-.822.761l.328 1.024s.494-.425 1.115-1.083a46.177 46.177 0 0 0 2.459 2.449l.673-.673c-1.111-1.008-1.925-1.807-2.522-2.449a7.445 7.445 0 0 0 1.786-3.234h1.775Z" style="fill:#617d8b"/><path d="M11.4 10a1.4 1.4 0 0 0-1.4 1.4v14.24a1.4 1.4 0 0 0 1.4 1.4h13.632L19.561 10Z" style="fill:#4f8bf5"/><path d="M21.242 14.216H29.6a1.39 1.39 0 0 1 1.4 1.375v8.419Z" style="fill:#fff;opacity:.200000002980232;isolation:isolate"/><path d="M13.792 18.856c.458-1.18.908-2.362 1.365-3.542h1.327c.072.182.141.365.212.548.335.865.665 1.732 1 2.6s.659 1.714.989 2.572l.267.692h-1.165q-.249-.758-.494-1.518h-2.944q-.245.76-.493 1.518h-1.165l1.1-2.866m.886.5h2.288c-.382-1-.76-2.008-1.144-3.011-.384 1.003-.761 2.009-1.143 3.012Z" style="fill:#f2f2f2"/></svg>

<svg xmlns="http://www.w3.org/2000/svg" viewBox="0 0 32 32"><title>folder_type_locale_opened</title><path d="M27.4,5.5H18.2L16.1,9.7H4.3V26.5H29.5V5.5Zm0,18.7H6.6V11.8H27.4Zm0-14.5H19.2l1-2.1h7.1V9.7Z" style="fill:#7b87db"/><polygon points="25.7 13.7 0.5 13.7 4.3 26.5 29.5 26.5 25.7 13.7" style="fill:#7b87db"/><path d="M29.6,31A1.39,1.39,0,0,0,31,29.624V15.591a1.39,1.39,0,0,0-1.4-1.376H15.968L21.439,31Z" style="fill:#d9d9d9"/><polygon points="25.03 27.035 21.464 31 20.167 27.035 25.03 27.035" style="fill:#4352b8"/><path d="M29.673,20.03v-.82H25.718V17.884H24.435v1.325H21.91v.82h5.023a7.272,7.272,0,0,1-1.441,2.535c-1.027-1.214-1.031-1.609-1.031-1.609H23.4s.044.591,1.483,2.278a10.13,10.13,0,0,1-.822.761l.328,1.024s.494-.425,1.115-1.083c.621.673,1.422,1.483,2.459,2.449l.673-.673c-1.111-1.008-1.925-1.807-2.522-2.449A7.445,7.445,0,0,0,27.9,20.028h1.775Z" style="fill:#617d8b"/><path d="M11.4,10A1.4,1.4,0,0,0,10,11.4V25.64a1.4,1.4,0,0,0,1.4,1.4H25.032L19.561,10Z" style="fill:#4f8bf5"/><path d="M21.242,14.216H29.6A1.39,1.39,0,0,1,31,15.591V24.01Z" style="fill:#fff;opacity:0.200000002980232;isolation:isolate"/><path d="M13.792,18.856c.458-1.18.908-2.362,1.365-3.542h1.327c.072.182.141.365.212.548.335.865.665,1.732,1,2.6s.659,1.714.989,2.572l.267.692c-.314,0-.629,0-.943,0h-.222q-.249-.758-.494-1.518H14.349q-.245.76-.493,1.518c-.388,0-.777,0-1.165,0q.55-1.433,1.1-2.866m.886.5c.763,0,1.525,0,2.288,0-.382-1-.76-2.008-1.144-3.011C15.437,17.352,15.06,18.358,14.678,19.361Z" style="fill:#f2f2f2"/></svg>
